icon-themes/elementary_svg/cmd/lc_paralefttoright.svg

<svg height="24" width="24" xmlns="http://www.w3.org/2000/svg" xmlns:xlink="http://www.w3.org/1999/xlink"><radialGradient id="a" cx="15" cy="3.75" gradientTransform="matrix(-3.2699 .13625 -.18182 -4.36364 64.73 14.32)" gradientUnits="userSpaceOnUse" r="5.5"><stop offset="0" stop-color="#737373"/><stop offset=".262" stop-color="#636363"/><stop offset=".705" stop-color="#4b4b4b"/><stop offset="1" stop-color="#3f3f3f"/></radialGradient><radialGradient id="b" cx="24.837" cy="36.421" gradientTransform="matrix(-.27598 0 0 -.29583 24.407 16.82)" gradientUnits="userSpaceOnUse" r="15.645" xlink:href="#e"/><linearGradient id="c" gradientTransform="matrix(.4922 0 0 .4584 4.593 -4.794)" gradientUnits="userSpaceOnUse" x1="23.732" x2="23.732" y1="5.394" y2="39.735"><stop offset="0" stop-color="#90dbec"/><stop offset=".262" stop-color="#55c1ec"/><stop offset=".705" stop-color="#3689e6"/><stop offset="1" stop-color="#2b63a0"/></linearGradient><linearGradient id="d" gradientTransform="matrix(0 -.5372 .57682 0 -15.914 19.866)" gradientUnits="userSpaceOnUse" x1="40.958" x2="18.681" y1="46.971" y2="46.971"><stop offset="0" stop-color="#fff"/><stop offset=".45" stop-color="#fff" stop-opacity=".235"/><stop offset=".65" stop-color="#fff" stop-opacity=".157"/><stop offset="1" stop-color="#fff" stop-opacity=".392"/></linearGradient><linearGradient id="e"><stop offset="0"/><stop offset="1" stop-opacity="0"/></linearGradient><radialGradient id="f" cx="22.571" cy="30.857" gradientTransform="matrix(.70612 0 0 .1355 -3.458 16.71)" gradientUnits="userSpaceOnUse" r="15.571" xlink:href="#e"/><path d="m9 3.514c-1.963 0-3.486 1.828-3.486 3.986s1.523 3.986 3.486 3.986h2.514v8.514a.486.486 0 0 0 .486.486h1a.486.486 0 0 0 .486-.486v-14.514h2.028v14.446a.486.486 0 0 0 .486.486h1a.486.486 0 0 0 .486-.486v-15.932a.486.486 0 0 0 -.486-.486z" fill="url(#a)"/><ellipse cx="12.48" cy="20.89" fill="url(#f)" opacity=".2" rx="10.995" ry="2.11"/><path d="m9 2.975v.025c-2.21 0-4 2.015-4 4.5s1.79 4.5 4 4.5h2v8.932l3 .052v-14.984h1v15h3v-18zm0 1.025h8v15.932h-1v-14.932h-3v15h-1v-9h-3c-1.657 0-3-1.567-3-3.5s1.343-3.5 3-3.5z" fill-opacity=".431"/><path d="m9 4h8v15.932h-1v-14.932h-3v15h-1v-9h-3c-1.657 0-3-1.567-3-3.5s1.343-3.5 3-3.5z" fill="url(#a)"/><path d="m9 4c-1.657 0-3 1.567-3 3.5 0 .17.023.335.043.5.21-1.694 1.447-3 2.957-3h8v-1z" fill="#fff" opacity=".1"/><path d="m13.235 5.632c0-6.17 8.467-6.17 8.467.002 0 2.556-1.933 5.04-4.318 5.04-2.384 0-4.15-7.598-4.15-5.042z" fill="url(#b)" fill-rule="evenodd" opacity=".141" transform="matrix(.85714 0 0 .85714 -8.57 14.143)"/><path d="m16.415 8.81 7.055-5.46-7.055-5.496v3.646h-5.832v3.588h5.832z" display="block" fill="url(#c)" transform="matrix(.85714 0 0 .85714 -8.57 14.143)"/><g fill="none" stroke-miterlimit="7"><path d="m17.415 6.7 4.544-3.35-4.545-3.423v2.573h-5.832v1.588h5.832z" display="block" opacity=".401" stroke="url(#d)" stroke-width="1.167" transform="matrix(.85714 0 0 .85714 -8.57 14.143)"/><path d="m5.5 21.695 6.047-4.68-6.047-4.71v3.125h-5v3.074h5z" display="block" opacity=".5" stroke="#004372" stroke-linejoin="round" stroke-width="1.000282"/></g></svg>

<svg xmlns="http://www.w3.org/2000/svg" xmlns:xlink="http://www.w3.org/1999/xlink" height="24" width="24"><defs><linearGradient id="a"><stop offset="0" stop-color="#737373"/><stop offset=".262" stop-color="#636363"/><stop offset=".705" stop-color="#4b4b4b"/><stop offset="1" stop-color="#3f3f3f"/></linearGradient><radialGradient xlink:href="#a" id="e" cx="15" cy="3.75" fx="15" fy="3.75" r="5.5" gradientTransform="matrix(-3.2699 .13625 -.18182 -4.36364 64.73 14.32)" gradientUnits="userSpaceOnUse"/><radialGradient xlink:href="#a" id="c" gradientUnits="userSpaceOnUse" gradientTransform="matrix(-3.2699 .13625 -.18182 -4.36364 64.73 14.32)" cx="15" cy="3.75" fx="15" fy="3.75" r="5.5"/><radialGradient id="f" cx="24.837" cy="36.421" gradientTransform="matrix(-.27598 0 0 -.29583 24.407 16.82)" gradientUnits="userSpaceOnUse" r="15.645" xlink:href="#b"/><linearGradient id="g" gradientTransform="matrix(.4922 0 0 .4584 4.593 -4.794)" gradientUnits="userSpaceOnUse" x1="23.732" x2="23.732" y1="5.394" y2="39.735"><stop offset="0" stop-color="#90dbec"/><stop offset=".262" stop-color="#55c1ec"/><stop offset=".705" stop-color="#3689e6"/><stop offset="1" stop-color="#2b63a0"/></linearGradient><linearGradient id="h" gradientTransform="matrix(0 -.5372 .57682 0 -15.914 19.866)" gradientUnits="userSpaceOnUse" x1="40.958" x2="18.681" y1="46.971" y2="46.971"><stop offset="0" stop-color="#fff"/><stop offset=".45" stop-color="#fff" stop-opacity=".235"/><stop offset=".65" stop-color="#fff" stop-opacity=".157"/><stop offset="1" stop-color="#fff" stop-opacity=".392"/></linearGradient></defs><linearGradient id="b"><stop offset="0"/><stop offset="1" stop-opacity="0"/></linearGradient><radialGradient id="d" cx="22.571" cy="30.857" gradientTransform="matrix(.70612 0 0 .1355 -3.458 16.71)" gradientUnits="userSpaceOnUse" r="15.571" xlink:href="#b"/><path d="M9 3.514c-1.963 0-3.486 1.828-3.486 3.986 0 2.158 1.523 3.986 3.486 3.986h2.514V20a.486.486 0 0 0 .486.486h1a.486.486 0 0 0 .486-.486V5.486h2.028v14.446a.486.486 0 0 0 .486.486h1a.486.486 0 0 0 .486-.486V4A.486.486 0 0 0 17 3.514z" fill="url(#c)"/><ellipse cx="12.48" cy="20.89" fill="url(#d)" opacity=".2" rx="10.995" ry="2.11"/><path d="M9 2.975V3C6.79 3 5 5.015 5 7.5S6.79 12 9 12h2v8.932l3 .052V6h1v15h3V3zM9 4h8v15.932h-1V5h-3v15h-1v-9H9c-1.657 0-3-1.567-3-3.5S7.343 4 9 4z" fill-opacity=".431"/><path d="M9 4h8v15.932h-1V5h-3v15h-1v-9H9c-1.657 0-3-1.567-3-3.5S7.343 4 9 4z" fill="url(#e)"/><path d="M9 4C7.343 4 6 5.567 6 7.5c0 .17.023.335.043.5C6.253 6.306 7.49 5 9 5h8V4H9z" opacity=".1" fill="#fff"/><path d="M13.235 5.632c0-6.17 8.467-6.17 8.467.002 0 2.556-1.933 5.04-4.318 5.04-2.384 0-4.15-7.598-4.15-5.042z" opacity=".141" fill="url(#f)" fill-rule="evenodd" transform="translate(-8.57 14.143) scale(.85714)"/><path d="M16.415 8.81l7.055-5.46-7.055-5.496V1.5h-5.832v3.588h5.832z" display="block" fill="url(#g)" transform="translate(-8.57 14.143) scale(.85714)"/><path d="M17.415 6.7l4.544-3.35-4.545-3.423V2.5h-5.832v1.588h5.832z" display="block" opacity=".401" fill="none" stroke="url(#h)" stroke-width="1.167" stroke-miterlimit="7" transform="translate(-8.57 14.143) scale(.85714)"/><path d="M5.5 21.695l6.047-4.68-6.047-4.71v3.125h-5v3.074h5z" display="block" opacity=".5" fill="none" stroke="#004372" stroke-width="1.00028238" stroke-linejoin="round" stroke-miterlimit="7"/></svg>
